svgs/wazirx.svg

<svg width="192" height="192" viewBox="0 0 192 192" fill="none" xmlns="http://www.w3.org/2000/svg">
<path d="M154.104 128H107.784C102.541 128 99.8202 121.749 103.393 117.911L161.019 56.0161C165.105 51.628 172.391 55.2849 171.313 61.1828L160.007 123.078C159.486 125.929 157.002 128 154.104 128Z" stroke="black" stroke-width="8" stroke-linecap="round"/>
<path d="M23.3279 123.933L19.9486 72.3288C19.599 66.9904 25.8822 63.8982 29.8989 67.4319L41.0372 77.2308C43.0443 78.9965 43.6411 81.8771 42.5008 84.2949L23.3279 124.95M115.16 66.4305L97.9484 44.528C95.2127 41.0466 89.7776 41.6262 87.8375 45.6061L51.8787 119.371C49.9358 123.356 52.838 128 57.272 128H71.7135C73.6064 128 75.3884 127.107 76.521 125.59L115.25 73.7277C116.872 71.5546 116.836 68.563 115.16 66.4305Z" stroke="black" stroke-width="8" stroke-linecap="round"/>
<rect x="20" y="143" width="152" height="14" rx="6" stroke="black" stroke-width="8"/>
</svg>

<svg width="192" height="192" viewBox="0 0 192 192" fill="none" xmlns="http://www.w3.org/2000/svg"><path d="M154.104 128h-46.32c-5.243 0-7.964-6.251-4.391-10.089l57.626-61.895c4.086-4.388 11.372-.731 10.294 5.167l-11.306 61.895a6 6 0 0 1-5.903 4.922ZM23.328 123.933l-3.38-51.604c-.349-5.339 5.934-8.43 9.95-4.897l11.14 9.799a6 6 0 0 1 1.463 7.064L23.328 124.95m91.832-58.52L97.948 44.528c-2.735-3.481-8.17-2.902-10.11 1.078l-35.96 73.765c-1.942 3.985.96 8.629 5.394 8.629h14.441a6 6 0 0 0 4.808-2.41l38.729-51.862a6 6 0 0 0-.09-7.297Z" stroke="#000" stroke-width="8" stroke-linecap="round"/><rect x="20" y="143" width="152" height="14" rx="6" stroke="#000" stroke-width="8"/></svg>
